SVG_Azure_All/O365 - Visio.svg

<?xml version="1.0" encoding="UTF-8" standalone="no"?>
<!-- Generated by Microsoft Visio, SVG Export O365 - Visio.svg Page-1 -->

<svg
   xmlns:dc="http://purl.org/dc/elements/1.1/"
   xmlns:cc="http://creativecommons.org/ns#"
   xmlns:rdf="http://www.w3.org/1999/02/22-rdf-syntax-ns#"
   xmlns:svg="http://www.w3.org/2000/svg"
   xmlns="http://www.w3.org/2000/svg"
   xmlns:sodipodi="http://sodipodi.sourceforge.net/DTD/sodipodi-0.dtd"
   xmlns:inkscape="http://www.inkscape.org/namespaces/inkscape"
   width="0.78740394in"
   height="0.78740388in"
   viewBox="0 0 56.692905 56.692829"
   xml:space="preserve"
   class="st9"
   version="1.1"
   id="svg64"
   sodipodi:docname="O365 - Visio.svg"
   style="font-size:12px;overflow:visible;color-interpolation-filters:sRGB;fill:none;fill-rule:evenodd;stroke-linecap:square;stroke-miterlimit:3"
   inkscape:version="0.92.5 (2060ec1f9f, 2020-04-08)"><metadata
   id="metadata70"><rdf:RDF><cc:Work
       rdf:about=""><dc:format>image/svg+xml</dc:format><dc:type
         rdf:resource="http://purl.org/dc/dcmitype/StillImage" /></cc:Work></rdf:RDF></metadata><defs
   id="defs68" /><sodipodi:namedview
   pagecolor="#ffffff"
   bordercolor="#666666"
   borderopacity="1"
   objecttolerance="10"
   gridtolerance="10"
   guidetolerance="10"
   inkscape:pageopacity="0"
   inkscape:pageshadow="2"
   inkscape:window-width="640"
   inkscape:window-height="480"
   id="namedview66"
   showgrid="false"
   inkscape:zoom="1.6180271"
   inkscape:cx="37.795385"
   inkscape:cy="27.574358"
   inkscape:window-x="0"
   inkscape:window-y="0"
   inkscape:window-maximized="0"
   inkscape:current-layer="svg64" />
	<style
   type="text/css"
   id="style2">
	<![CDATA[
		.st1 {fill:#2b7cd3;stroke:none;stroke-linecap:butt;stroke-width:18.6838}
		.st2 {fill:#41a5ee;stroke:none;stroke-linecap:butt;stroke-width:18.6838}
		.st3 {fill:#103f91;stroke:none;stroke-linecap:butt;stroke-width:18.6838}
		.st4 {fill:none;stroke:none;stroke-linecap:butt;stroke-width:18.6838}
		.st5 {fill:#000000;fill-opacity:0.098;stroke:none;stroke-linecap:butt;stroke-width:18.6838}
		.st6 {fill:#000000;stroke:none;stroke-linecap:butt;stroke-width:18.6838}
		.st7 {fill:#185abd;stroke:none;stroke-linecap:butt;stroke-width:18.6838}
		.st8 {fill:#ffffff;stroke:none;stroke-linecap:butt;stroke-width:18.6838}
		.st9 {fill:none;fill-rule:evenodd;font-size:12px;overflow:visible;stroke-linecap:square;stroke-miterlimit:3}
	]]>
	</style>

	<g
   id="g62"
   transform="translate(-18.6838,-18.683869)">
		<title
   id="title4">Page-1</title>
		<g
   id="group2435-1"
   transform="translate(18.6838,-34.0157)">
			<title
   id="title6">O365 - Visio</title>
			<g
   id="group2436-2">
				<title
   id="title8">_32</title>
				<g
   id="shape2437-3"
   transform="translate(28.3465,-15.9449)">
					<title
   id="title10">rect6</title>
					<path
   d="m 0,106.92 a 2.35635,2.47326 -180 0 0 2.36,2.47 h 21.86 a 2.35635,2.47326 -180 0 0 2.35,-2.47 V 85.29 A 2.35635,2.47326 -180 0 0 24.22,82.82 H 2.36 A 2.35635,2.47326 -180 0 0 0,85.29 Z"
   class="st1"
   id="path12"
   inkscape:connector-curvature="0"
   style="fill:#2b7cd3;stroke:none;stroke-width:18.68379974;stroke-linecap:butt" />
				</g>
				<g
   id="shape2438-5"
   transform="translate(14.2196,-30.1181)">
					<title
   id="title15">path8</title>
					<path
   d="M 25.84,97.77 14.91,108.7 a 2.39173,2.39173 90 0 1 -1.67,0.69 2.3563,2.3563 90 0 1 -1.66,-0.69 L 0.64,97.77 A 2.33858,2.33858 -180 0 1 0.13,95.22 2.21457,2.21457 90 0 1 0.64,94.44 L 11.58,83.51 a 2.3563,2.3563 90 0 1 3.33,0 l 10.93,10.93 a 2.3563,2.3563 90 0 1 0,3.33 z"
   class="st2"
   id="path17"
   inkscape:connector-curvature="0"
   style="fill:#41a5ee;stroke:none;stroke-width:18.68379974;stroke-linecap:butt" />
				</g>
				<g
   id="shape2439-7"
   transform="translate(14.1732,-4.23794)">
					<title
   id="title20">path10</title>
					<path
   d="M 26.57,96.8 A 13.2697,13.2697 -180 0 1 2.69,104.77 10.3642,10.3642 90 0 1 1.56,103 9.28346,9.28346 90 0 1 0.78,101.23 12.6673,12.6673 90 0 1 0,96.8 13.2874,13.2874 90 0 1 13.29,83.51 a 7.42323,7.42323 90 0 1 0.88,0 9.88583,9.88583 90 0 1 1.77,0.21 10.1516,10.1516 90 0 1 1.78,0.52 13.2697,13.2697 -180 0 1 8.85,12.56 z"
   class="st3"
   id="path22"
   inkscape:connector-curvature="0"
   style="fill:#103f91;stroke:none;stroke-width:18.68379974;stroke-linecap:butt" />
				</g>
				<g
   id="shape2440-9">
					<title
   id="title25">path12</title>
					<rect
   x="0"
   y="52.699501"
   width="56.692902"
   height="56.692902"
   class="st4"
   id="rect27"
   style="fill:none;stroke:none;stroke-width:18.68379974;stroke-linecap:butt" />
				</g>
				<g
   id="shape2441-11"
   transform="translate(14.1732,-10.6112)">
					<title
   id="title30">path14</title>
					<path
   d="m 17.72,78.07 v 28.95 a 2.33858,2.33858 -180 0 1 -1.78,2.35 1.77165,1.77165 90 0 1 -0.51,0 H 1.56 A 9.28346,9.28346 90 0 1 0.78,107.6 12.6673,12.6673 90 0 1 0,103.17 V 76.6 a 2.19685,2.19685 90 0 1 0.18,-0.89 h 15.18 a 2.37402,2.37402 90 0 1 2.36,2.36 z"
   class="st5"
   id="path32"
   inkscape:connector-curvature="0"
   style="fill:#000000;fill-opacity:0.09800002;stroke:none;stroke-width:18.68379974;stroke-linecap:butt" />
				</g>
				<g
   id="shape2442-13"
   transform="translate(14.1732,-8.85827)">
					<title
   id="title35">path16</title>
					<path
   d="m 15.94,78.09 v 28.95 a 1.77165,1.77165 90 0 1 0,0.58 2.33858,2.33858 -180 0 1 -2.28,1.77 H 2.69 A 10.3642,10.3642 90 0 1 1.56,107.62 9.28346,9.28346 90 0 1 0.78,105.85 12.6673,12.6673 90 0 1 0,101.42 V 75.73 h 13.59 a 2.37402,2.37402 90 0 1 2.35,2.36 z"
   class="st6"
   id="path37"
   inkscape:connector-curvature="0"
   style="fill:#000000;stroke:none;stroke-width:18.68379974;stroke-linecap:butt" />
				</g>
				<g
   id="shape2443-15"
   transform="translate(14.1732,-12.4016)">
					<title
   id="title40">path18</title>
					<path
   d="m 15.94,81.63 v 25.41 a 2.37402,2.37402 90 0 1 -2.35,2.35 H 0.78 A 12.6673,12.6673 90 0 1 0,104.96 V 79.27 h 13.59 a 2.37402,2.37402 90 0 1 2.35,2.36 z"
   class="st6"
   id="path42"
   inkscape:connector-curvature="0"
   style="fill:#000000;stroke:none;stroke-width:18.68379974;stroke-linecap:butt" />
				</g>
				<g
   id="shape2444-17"
   transform="translate(14.1732,-12.4016)">
					<title
   id="title45">path20</title>
					<path
   d="m 14.17,81.63 v 25.41 a 2.37402,2.37402 90 0 1 -2.35,2.35 H 0.78 A 12.6673,12.6673 90 0 1 0,104.96 V 79.27 h 11.82 a 2.37402,2.37402 90 0 1 2.35,2.36 z"
   class="st6"
   id="path47"
   inkscape:connector-curvature="0"
   style="fill:#000000;stroke:none;stroke-width:18.68379974;stroke-linecap:butt" />
				</g>
				<g
   id="shape2445-19"
   transform="translate(0,-14.1732)">
					<title
   id="title50">Back_Plate</title>
					<path
   d="m 0,106.92 a 2.35635,2.47326 -180 0 0 2.36,2.47 h 23.63 a 2.35635,2.47326 -180 0 0 2.36,-2.47 V 83.52 A 2.35635,2.47326 -180 0 0 25.99,81.05 H 2.36 A 2.35635,2.47326 -180 0 0 0,83.52 Z"
   class="st7"
   id="path52"
   inkscape:connector-curvature="0"
   style="fill:#185abd;stroke:none;stroke-width:18.68379974;stroke-linecap:butt" />
				</g>
				<g
   id="shape2446-21"
   transform="translate(5.54528,-19.4882)">
					<title
   id="title55">path23</title>
					<path
   d="m 7.72,103.4 c 0.52,1.47 0.82,2.4 0.91,2.79 0.09,-0.39 0.41,-1.39 0.95,-3 l 4.03,-11.51 h 3.65 l -6.72,17.71 H 6.63 L 0,91.68 h 3.76 z"
   class="st8"
   id="path57"
   inkscape:connector-curvature="0"
   style="fill:#ffffff;stroke:none;stroke-width:18.68379974;stroke-linecap:butt" />
				</g>
			</g>
		</g>
	</g>
</svg>

<?xml version="1.0" encoding="UTF-8" standalone="no"?>
<!DOCTYPE svg PUBLIC "-//W3C//DTD SVG 1.1//EN" "http://www.w3.org/Graphics/SVG/1.1/DTD/svg11.dtd">
<!-- Generated by Microsoft Visio, SVG Export O365 - Visio.svg Page-1 -->
<svg xmlns="http://www.w3.org/2000/svg" xmlns:xlink="http://www.w3.org/1999/xlink" xmlns:ev="http://www.w3.org/2001/xml-events"
		width="1.3064in" height="1.51934in" viewBox="0 0 94.0605 109.392" xml:space="preserve" color-interpolation-filters="sRGB"
		class="st9">
	<style type="text/css">
	<![CDATA[
		.st1 {fill:#2b7cd3;stroke:none;stroke-linecap:butt;stroke-width:18.6838}
		.st2 {fill:#41a5ee;stroke:none;stroke-linecap:butt;stroke-width:18.6838}
		.st3 {fill:#103f91;stroke:none;stroke-linecap:butt;stroke-width:18.6838}
		.st4 {fill:none;stroke:none;stroke-linecap:butt;stroke-width:18.6838}
		.st5 {fill:#000000;fill-opacity:0.098;stroke:none;stroke-linecap:butt;stroke-width:18.6838}
		.st6 {fill:#000000;stroke:none;stroke-linecap:butt;stroke-width:18.6838}
		.st7 {fill:#185abd;stroke:none;stroke-linecap:butt;stroke-width:18.6838}
		.st8 {fill:#ffffff;stroke:none;stroke-linecap:butt;stroke-width:18.6838}
		.st9 {fill:none;fill-rule:evenodd;font-size:12px;overflow:visible;stroke-linecap:square;stroke-miterlimit:3}
	]]>
	</style>

	<g>
		<title>Page-1</title>
		<g id="group2409-1" transform="translate(18.6838,-34.0157)">
			<title>O365 - Visio</title>
			<g id="group2410-2">
				<title>_32</title>
				<g id="shape2411-3" transform="translate(28.3465,-15.9449)">
					<title>rect6</title>
					<path d="M0 106.92 A2.35635 2.47326 -180 0 0 2.36 109.39 L24.22 109.39 A2.35635 2.47326 -180 0 0 26.57 106.92
								 L26.57 85.29 A2.35635 2.47326 -180 0 0 24.22 82.82 L2.36 82.82 A2.35635 2.47326 -180 0 0 0 85.29
								 L0 106.92 Z" class="st1"/>
				</g>
				<g id="shape2412-5" transform="translate(14.2196,-30.1181)">
					<title>path8</title>
					<path d="M25.84 97.77 L14.91 108.7 A2.39173 2.39173 90 0 1 13.24 109.39 A2.3563 2.3563 90 0 1 11.58 108.7 L0.64
								 97.77 A2.33858 2.33858 180 0 1 0.13 95.22 A2.21457 2.21457 90 0 1 0.64 94.44 L11.58 83.51 A2.3563
								 2.3563 90 0 1 14.91 83.51 L25.84 94.44 A2.3563 2.3563 90 0 1 25.84 97.77 Z" class="st2"/>
				</g>
				<g id="shape2413-7" transform="translate(14.1732,-4.23794)">
					<title>path10</title>
					<path d="M26.57 96.8 A13.2697 13.2697 180 0 1 2.69 104.77 A10.3642 10.3642 90 0 1 1.56 103 A9.28346 9.28346 90
								 0 1 0.78 101.23 A12.6673 12.6673 90 0 1 0 96.8 A13.2874 13.2874 90 0 1 13.29 83.51 A7.42323 7.42323
								 90 0 1 14.17 83.51 A9.88583 9.88583 90 0 1 15.94 83.72 A10.1516 10.1516 90 0 1 17.72 84.24 A13.2697
								 13.2697 180 0 1 26.57 96.8 Z" class="st3"/>
				</g>
				<g id="shape2414-9" transform="translate(1.9176E-07,0)">
					<title>path12</title>
					<rect x="0" y="52.6995" width="56.6929" height="56.6929" class="st4"/>
				</g>
				<g id="shape2415-11" transform="translate(14.1732,-10.6112)">
					<title>path14</title>
					<path d="M17.72 78.07 L17.72 107.02 A2.33858 2.33858 180 0 1 15.94 109.37 A1.77165 1.77165 90 0 1 15.43 109.37
								 L1.56 109.37 A9.28346 9.28346 90 0 1 0.78 107.6 A12.6673 12.6673 90 0 1 -0 103.17 L0 76.6 A2.19685
								 2.19685 90 0 1 0.18 75.71 L15.36 75.71 A2.37402 2.37402 90 0 1 17.72 78.07 Z" class="st5"/>
				</g>
				<g id="shape2416-13" transform="translate(14.1732,-8.85827)">
					<title>path16</title>
					<path d="M15.94 78.09 L15.94 107.04 A1.77165 1.77165 90 0 1 15.94 107.62 A2.33858 2.33858 180 0 1 13.66 109.39
								 L2.69 109.39 A10.3642 10.3642 90 0 1 1.56 107.62 A9.28346 9.28346 90 0 1 0.78 105.85 A12.6673 12.6673
								 90 0 1 0 101.42 L0 75.73 L13.59 75.73 A2.37402 2.37402 90 0 1 15.94 78.09 Z" class="st6"/>
				</g>
				<g id="shape2417-15" transform="translate(14.1732,-12.4016)">
					<title>path18</title>
					<path d="M15.94 81.63 L15.94 107.04 A2.37402 2.37402 90 0 1 13.59 109.39 L0.78 109.39 A12.6673 12.6673 90 0 1
								 0 104.96 L0 79.27 L13.59 79.27 A2.37402 2.37402 90 0 1 15.94 81.63 Z" class="st6"/>
				</g>
				<g id="shape2418-17" transform="translate(14.1732,-12.4016)">
					<title>path20</title>
					<path d="M14.17 81.63 L14.17 107.04 A2.37402 2.37402 90 0 1 11.82 109.39 L0.78 109.39 A12.6673 12.6673 90 0 1
								 0 104.96 L0 79.27 L11.82 79.27 A2.37402 2.37402 90 0 1 14.17 81.63 Z" class="st6"/>
				</g>
				<g id="shape2419-19" transform="translate(0,-14.1732)">
					<title>Back_Plate</title>
					<path d="M0 106.92 A2.35635 2.47326 -180 0 0 2.36 109.39 L25.99 109.39 A2.35635 2.47326 -180 0 0 28.35 106.92
								 L28.35 83.52 A2.35635 2.47326 -180 0 0 25.99 81.05 L2.36 81.05 A2.35635 2.47326 -180 0 0 0 83.52
								 L0 106.92 Z" class="st7"/>
				</g>
				<g id="shape2420-21" transform="translate(5.54528,-19.4882)">
					<title>path23</title>
					<path d="M7.72 103.4 C8.24 104.87 8.54 105.8 8.63 106.19 C8.72 105.8 9.04 104.8 9.58 103.19 L13.61 91.68 L17.26
								 91.68 L10.54 109.39 L6.63 109.39 L0 91.68 L3.76 91.68 L7.72 103.4 Z" class="st8"/>
				</g>
			</g>
		</g>
	</g>
</svg>
